Papirus/48x48/mimetypes/application-vnd.insync.link.drive.form.svg

<?xml version="1.0" encoding="UTF-8" standalone="no"?>
<svg xmlns="http://www.w3.org/2000/svg" height="48" width="48" version="1.1">
 <path style="fill:#13a553" d="m10 4c-1.108 0-2 0.892-2 2v36c0 1.108 0.892 2 2 2h28c1.108 0 2-0.892 2-2v-26l-11-1-1-11z"/>
 <path opacity=".2" d="m10 4c-1.108 0-2 0.892-2 2v1c0-1.108 0.892-2 2-2h18l11 11h1l-12-12z" fill="#ffffff"/>
 <path style="fill:#70c896" d="m28 4v10c0 1.1046 0.89543 2 2 2h10z"/>
 <rect style="fill:#ffffff" height="2" width="14" y="23" x="20"/>
 <rect style="fill:#ffffff" height="2" width="14" y="28" x="20"/>
 <rect style="fill:#ffffff" height="2" width="14" y="33" x="20"/>
 <rect x="14" y="23" width="3" height="2" style="fill:#ffffff"/>
 <rect x="14" y="28" width="3" height="2" style="fill:#ffffff"/>
 <rect x="14" y="33" width="3" height="2" style="fill:#ffffff"/>
</svg>

<?xml version="1.0" encoding="UTF-8" standalone="no"?>
<svg xmlns="http://www.w3.org/2000/svg" height="48" width="48" version="1.1">
 <path d="M 10,4 C 8.892,4 8,4.892 8,6 V 42 C 8,43.108 8.892,44 10,44 H 38 C 39.108,44 40,43.108 40,42 V 16 L 29,15 28,4 Z" style="fill:#13a553"/>
 <path d="M 10 4 C 8.892 4 8 4.892 8 6 L 8 7 C 8 5.892 8.892 5 10 5 L 28 5 L 28 4 L 10 4 z" style="fill:#ffffff;opacity:0.2"/>
 <path d="M 28,4 V 14 C 28,15.105 28.895,16 30,16 H 40 Z" style="fill:#70c795"/>
 <rect style="fill:#ffffff" height="2" width="16" y="23" x="18"/>
 <rect style="fill:#ffffff" height="2" width="16" y="27" x="18"/>
 <rect style="fill:#ffffff" height="2" width="16" y="31" x="18"/>
 <rect x="14" y="23" width="2" height="2" style="fill:#ffffff"/>
 <rect x="14" y="27" width="2" height="2" style="fill:#ffffff"/>
 <rect x="14" y="31" width="2" height="2" style="fill:#ffffff"/>
 <rect x="18" y="35" width="16" height="2" style="fill:#ffffff"/>
 <rect style="fill:#ffffff" height="2" width="2" y="35" x="14"/>
</svg>
